X: 11
T: Missa J'ay pris amours / Agnus Dei
N: Derived from Ort1002e-Missa_Jay_pris_amours-Agnus.krn
C: Marbrianus de Orto
%%abc-version 2.0
%%abcx-abcm2ps-target-version 5.9.1 (29 Sep 2008)
%%abc-creator hum2abc beta
%%abcx-conversion-date 2019/02/17 07:28:37
%%abc-edited-by Jesse Rodin
%%abc-edited-by Jesse Rodin 8/11/2013
%%abcx-initial-encoding-date 2013/08/11/
%%humdrum-veritas 4219883823
%%humdrum-veritas-data 3536780288
%%linebreak <none>
%%barnumbers 0
L: 1/4
M: 4/2
Q: 1/2=120
%%staves [1 2 3 4]
V: 1 clef=treble
V: 2 clef=treble-8
V: 3 clef=treble-8
V: 4 clef=bass
K: C
[V:1] A8 | 
[V:2] A8 | 
[V:3] A4c4 | 
[V:4] z8 | 
[V:1] G4G4 | 
[V:2] E4e4 | 
[V:3] B4E4 | 
[V:4] z8 | 
[V:1] A2GFE2G2 | 
[V:2] c2A2c2d2 | 
[V:3] F3GA2G2 | 
[V:4] z8 | 
[V:1] A2B2c4 | 
[V:2] e8 | 
[V:3] c2G2A4 | 
[V:4] z8 | 
[V:1] B2G2A4 | 
[V:2] e4c3d | 
[V:3] E4F4 | 
[V:4] z8 | 
[V:1] G4z2E2 | 
[V:2] e4d2G2 | 
[V:3] C2c2B2c2 | 
[V:4] z8 | 
[V:1] F3GA2GF | 
[V:2] z2d2f4 | 
[V:3] A4z2A2 | 
[V:4] D,4D,2D,2 | 
[V:1] E2G2F4 | 
[V:2] g2e4d2 | 
[V:3] c4z2A2 | 
[V:4] C,4D,4 | 
[V:1] E4z4 | 
[V:2] e4c4 | 
[V:3] c3de4 | 
[V:4] A,,4z2C,2 | 
[V:1] z2G2A2G2 | 
[V:2] A2e2c2g2 | 
[V:3] d2B2A2z2 | 
[V:4] D,2E,2F,2E,C, | 
[V:1] z2G2A2G2 | 
[V:2] f2e4e2 | 
[V:3] B2c2A2B2 | 
[V:4] D,2C,2z2E,2 | 
[V:1] c2B2A3D | 
[V:2] cAd2c2d2- | 
[V:3] A2z2z4 | 
[V:4] F,2G,2A,F,2G, | 
[V:1] F2G3F/E/F2 | 
[V:2] d2c2d4 | 
[V:3] z2G2A4 | 
[V:4] F,D,E,2D,4- | 
[V:1] z2G3FED | 
[V:2] z8 | 
[V:3] F2E2G3F | 
[V:4] D,2C,2B,,4 | 
[V:1] C2c4BA | 
[V:2] e2f2e2c2 | 
[V:3] A4z4 | 
[V:4] A,,4z2A,2 | 
[V:1] G2c4d2 | 
[V:2] d2c2f3e | 
[V:3] z8 | 
[V:4] _B,2A,2F,4 | 
[V:1] B3Ac4 | 
[V:2] d4z2f2- | 
[V:3] z2G2A3B/c/ | 
[V:4] G,4F,4- | 
[V:1] z8 | 
[V:2] f2g2a2gf | 
[V:3] d2c4B2 | 
[V:4] F,2E,2D,4 | 
[V:1] G2A4GF | 
[V:2] e2f4d2- | 
[V:3] c2A2z4 | 
[V:4] C,2F,4G,2 | 
[V:1] E4DEFG | 
[V:2] d2c2d2A2 | 
[V:3] z4A2d2- | 
[V:4] A,4D,4 | 
[V:1] A2G2c2B2 | 
[V:2] z8 | 
[V:3] d2e2A2d2 | 
[V:4] F,2E,2F,2G,2 | 
[V:1] c2A4^G2 | 
[V:2] z4e3d | 
[V:3] c2d2B4 | 
[V:4] A,2G,F,E,4 | 
[V:1] A4z4 | 
[V:2] e2f2d3c | 
[V:3] A4z2E2 | 
[V:4] A,,4B,,2A,,2 | 
[V:1] z8 | 
[V:2] BAA4^G2 | 
[V:3] F2E4D2 | 
[V:4] D,2C,2B,,4 | 
[V:1] z8 | 
[V:2] A4z4 | 
[V:3] F2E4C2 | 
[V:4] A,,8 | 
[V:1] z8 | 
[V:2] z8 | 
[V:3] D2E2F2G2 | 
[V:4] z2C,2D,2E,2 | 
[V:1] z8 | 
[V:2] z8 | 
[V:3] ABcde2c2- | 
[V:4] F,2E,D,C,2E,2 | 
[V:1] z4G2A2 | 
[V:2] z8 | 
[V:3] c2B2c4 | 
[V:4] D,4C,4- | 
[V:1] G2c3Bc2 | 
[V:2] G2A2G2c2 | 
[V:3] e8 | 
[V:4] C,4z2A,,2 | 
[V:1] d2e2A2c2 | 
[V:2] B2G2F2A2 | 
[V:3] d2c2z2e2 | 
[V:4] B,,2C,2D,2A,,2 | 
[V:1] d2c2A2c2- | 
[V:2] B2G2F2G2 | 
[V:3] d2e2f2e2 | 
[V:4] z2C,2D,2C,2 | 
[V:1] cBAGA2c2- | 
[V:2] ABc2f2g2 | 
[V:3] c4d2e2 | 
[V:4] F,3E,D,2C,2 | 
[V:1] c2B3AA2- | 
[V:2] a2g2f4 | 
[V:3] A2d3cd2 | 
[V:4] F,2G,2D,4 | 
[V:1] A2^G2A8 ||  
[V:2] e12 ||  
[V:3] B4A8 ||  
[V:4] E,4A,,8 ||  
[V:1]  [K:C] [K:clef=treble][M:2/1]z8 | 
[V:2]  [K:C] [K:clef=treble-8][M:2/1]z8 | 
[V:3]  [K:C] [K:clef=treble-8][M:2/1]z8 | 
[V:4]  [K:C] [K:clef=bass][M:2/1]B,4C4- | 
[V:1] z8 | 
[V:2] z8 | 
[V:3] z8 | 
[V:4] C2B,A,B,4 | 
[V:1] z8 | 
[V:2] z8 | 
[V:3] B4c4- | 
[V:4] E,8 | 
[V:1] z8 | 
[V:2] z8 | 
[V:3] c2BAB4 | 
[V:4] z4G,4- | 
[V:1] z8 | 
[V:2] z8 | 
[V:3] E8 | 
[V:4] G,2A,2B,4 | 
[V:1] z8 | 
[V:2] z8 | 
[V:3] z4G4- | 
[V:4] C4B,2G,2- | 
[V:1] z8 | 
[V:2] z8 | 
[V:3] G2A2B4 | 
[V:4] G,2F,2G,4 | 
[V:1] z8 | 
[V:2] z8 | 
[V:3] c4B2G2- | 
[V:4] z4B,4- | 
[V:1] z8 | 
[V:2] z8 | 
[V:3] G2^F2G4 | 
[V:4] B,2A,2B,2D2- | 
[V:1] z8 | 
[V:2] z8 | 
[V:3] z4B4- | 
[V:4] D2C2D4 | 
[V:1] z8 | 
[V:2] z8 | 
[V:3] B2A2B2d2- | 
[V:4] z2C2D4 | 
[V:1] z8 | 
[V:2] z8 | 
[V:3] d2^c2d4 | 
[V:4] E4z4 | 
[V:1] z8 | 
[V:2] z8 | 
[V:3] z2c2d4 | 
[V:4] A,4B,4 | 
[V:1] z8 | 
[V:2] z8 | 
[V:3] e4z4 | 
[V:4] A,3B,CDC2- | 
[V:1] z8 | 
[V:2] z8 | 
[V:3] A4B4 | 
[V:4] C2B,A,G,4 | 
[V:1] z8 | 
[V:2] z8 | 
[V:3] A3Bcdc2- | 
[V:4] A,4F,4- | 
[V:1] z8 | 
[V:2] z8 | 
[V:3] c2BAG4 | 
[V:4] F,4E,4 | 
[V:1] z8 | 
[V:2] z8 | 
[V:3] A4F4- | 
[V:4] E2F3ED2- | 
[V:1] z8 | 
[V:2] z8 | 
[V:3] F4E4 | 
[V:4] D2C4B,2 | 
[V:1] z8 | 
[V:2] z8 | 
[V:3] e2f3ed2- | 
[V:4] C2z3CB,A, | 
[V:1] z8 | 
[V:2] z8 | 
[V:3] d2c4B2 | 
[V:4] G,2C2D4 | 
[V:1] z8 | 
[V:2] z8 | 
[V:3] c2d3cBA | 
[V:4] z4G,4 | 
[V:1] z8 | 
[V:2] z8 | 
[V:3] G2c2d4 | 
[V:4] E,2F,4G,2 | 
[V:1] z8 | 
[V:2] z8 | 
[V:3] z4G4 | 
[V:4] A,4E,3F, | 
[V:1] z8 | 
[V:2] z8 | 
[V:3] E2F4G2 | 
[V:4] G,2A,4G,2 | 
[V:1] z8 | 
[V:2] z8 | 
[V:3] A4E3F | 
[V:4] C4B,2E2- | 
[V:1] z8 | 
[V:2] z8 | 
[V:3] G2A4G2 | 
[V:4] EDC2B,4 | 
[V:1] z8 | 
[V:2] z8 | 
[V:3] c4B2e2- | 
[V:4] A,3B,/C/D2C2- | 
[V:1] z8 | 
[V:2] z8 | 
[V:3] edc2B4 | 
[V:4] C2A,4G,2 | 
[V:1] z8 | 
[V:2] z8 | 
[V:3] A3B/c/d2c2- | 
[V:4] A,G,F,E,F,2E,2- | 
[V:1] z8 | 
[V:2] z8 | 
[V:3] c2A4^G2 | 
[V:4] E,2C,2B,,4 | 
[V:1] z8 ||  
[V:2] z8 ||  
[V:3] A8 ||  
[V:4] A,,8 ||  
[V:1]  [K:C] [K:clef=treble][M:2/1]A8- :
[V:2]  [K:C] [K:clef=treble-8][M:2/1]d4f4 | 
[V:3]  [K:C] [K:clef=treble-8][M:2/1]z8 | 
[V:4]  [K:C] [K:clef=bass][M:2/1]z8 | 
[V:1] A8- :
[V:2] e4A4 | 
[V:3] A4c4 | 
[V:4] z8 | 
[V:1] A8- :
[V:2] z2d4f2- | 
[V:3] d4A4 | 
[V:4] D,4F,4- | 
[V:1] A8- :
[V:2] f2f2e2A2- | 
[V:3] c4z2F2- | 
[V:4] F,2E,D,C,2D,2- | 
[V:1] A8- :
[V:2] A2d2e2f2 | 
[V:3] FGABc2A2 | 
[V:4] D,2C,B,,A,,4 | 
[V:1] A8 | 
[V:2] e4A4 | 
[V:3] c4F4 | 
[V:4] A,3B,C4 | 
[V:1] c8- :
[V:2] z4z2A2- | 
[V:3] z2A2c3d | 
[V:4] F,3G,A,4 | 
[V:1] c8- :
[V:2] ABcde4 | 
[V:3] e4c4 | 
[V:4] A,,3B,,C,4 | 
[V:1] c8 :
[V:2] f4e4 | 
[V:3] F2A4G2 | 
[V:4] z2A,,2C,3D, | 
[V:1] c8- :
[V:2] z2A2c3d | 
[V:3] c3defe2- | 
[V:4] E,2F,2z2A,,2 | 
[V:1] c8- :
[V:2] efg4a2- | 
[V:3] e2c4A2- | 
[V:4] C,3D,E,2F,2- | 
[V:1] c8 | 
[V:2] a2g2e2f2 | 
[V:3] A2e4c2 | 
[V:4] F,G,A,B,C2A,2 | 
[V:1] B8- :
[V:2] g3fe2d2 | 
[V:3] d4G4 | 
[V:4] G,4z2G,2- | 
[V:1] B8- :
[V:2] e2B2z2g2- | 
[V:3] B3cd2B2 | 
[V:4] G,F,E,2D,2E,2 | 
[V:1] B8- :
[V:2] gfd2e2B2 | 
[V:3] d4G2d2 | 
[V:4] B,,4z2G,2- | 
[V:1] B8- :
[V:2] z2g4fe | 
[V:3] B2e4e2 | 
[V:4] G,2E,2E,4 | 
[V:1] B8- :
[V:2] e2d2g4 | 
[V:3] B4E2G2- | 
[V:4] E,2G,3F,E,2- | 
[V:1] B8 | 
[V:2] e4d4 | 
[V:3] G2A3^G^G^F | 
[V:4] E,2D,C,B,,4 | 
[V:1] E8- :
[V:2] c4B2A2 | 
[V:3] A4G2c2- | 
[V:4] A,,4z4 | 
[V:1] E8- :
[V:2] c4c2B2- | 
[V:3] cBAGA2E2 | 
[V:4] z8 | 
[V:1] E8- :
[V:2] BAA4^G2 | 
[V:3] G2A2B4 | 
[V:4] z4E,4 | 
[V:1] E8- :
[V:2] A4z2A2 | 
[V:3] c2BAG2A2- | 
[V:4] A,,4C,3D, | 
[V:1] E8- :
[V:2] c2B2c3d | 
[V:3] A2G2A4 | 
[V:4] E,4A,,4 | 
[V:1] E8 | 
[V:2] e3dB4 | 
[V:3] c4z2G2 | 
[V:4] A,4G,2E,2- | 
[V:1] z8 :
[V:2] z4d3c | 
[V:3] B4A3G | 
[V:4] E,F,G,2F,2D,2- | 
[V:1] x8 :
[V:2] BAA4f2- | 
[V:3] F2E2D2d2- | 
[V:4] D,2C,2D,3C, | 
[V:1] x8 :
[V:2] fee4d2 | 
[V:3] d2B4A2 | 
[V:4] D,2E,2F,4 | 
[V:1] G8- :
[V:2] e4e4 | 
[V:3] (3B4c4B4 | 
[V:4] E,4C,2E,2- | 
[V:1] G8- :
[V:2] B2c2d2e2- | 
[V:3] e4d2c2 | 
[V:4] E,D,C,2B,,2C,D, | 
[V:1] G8 | 
[V:2] e2e2e4 | 
[V:3] B2A2B4 | 
[V:4] E,4E,4 | 
[V:1] A8- :
[V:2] z2c4f2- | 
[V:3] A8 | 
[V:4] F,8 | 
[V:1] A8- :
[V:2] f2edc2A2 | 
[V:3] z4A2d2- | 
[V:4] F,4F,4 | 
[V:1] A8 :
[V:2] z2A2c2d2 | 
[V:3] d2cBA4 | 
[V:4] D,2F,4F,2 | 
[V:1] B8- :
[V:2] e4d4 | 
[V:3] G3AB4 | 
[V:4] E,4G,4- | 
[V:1] B8- :
[V:2] g6fe | 
[V:3] E4G4 | 
[V:4] G,4E,4 | 
[V:1] B8 | 
[V:2] d2c2d4 | 
[V:3] z8 | 
[V:4] G,8 | 
[V:1] c8- :
[V:2] c8 | 
[V:3] G4A4 | 
[V:4] C,4F,4 | 
[V:1] c8- :
[V:2] z4e4 | 
[V:3] G4c4- | 
[V:4] E,4A,4- | 
[V:1] c8 :
[V:2] f2e2a4 | 
[V:3] c2d2e4- | 
[V:4] A,4A,4 | 
[V:1] B8- :
[V:2] g3fd2e2- | 
[V:3] e4B4 | 
[V:4] E,3F,G,4 | 
[V:1] B4G4- :
[V:2] ede2B2c2- | 
[V:3] c4z4 | 
[V:4] z2C,2E,4 | 
[V:1] G8 | 
[V:2] cBc2G2c2- | 
[V:3] e8 | 
[V:4] z2C,2E,4 | 
[V:1] A8- :
[V:2] c2d2c2d2- | 
[V:3] A4z4 | 
[V:4] F,3G,A,2D,2 | 
[V:1] A8- :
[V:2] dAd2c2f2- | 
[V:3] z2A3Bc2 | 
[V:4] F,2D,2F,3E, | 
[V:1] A8 :
[V:2] fdg4^f2 | 
[V:3] d2e2d4 | 
[V:4] D,2C,2D,4 | 
[V:1] G8- :
[V:2] g4z2G2- | 
[V:3] z4B4 | 
[V:4] z2G,4E,2- | 
[V:1] G8- :
[V:2] G2c4B2 | 
[V:3] c4d4 | 
[V:4] E,2C,2G,4 | 
[V:1] G8 | 
[V:2] c4G4 | 
[V:3] e4d2B2 | 
[V:4] C,4z2E,2- | 
[V:1] z8 :
[V:2] z4z2d2 | 
[V:3] c2A4B2 | 
[V:4] E,2F,2D,4 | 
[V:1] x8 :
[V:2] c2d3ef2- | 
[V:3] A2GFG2A2 | 
[V:4] z8 | 
[V:1] x8 :
[V:2] f2e4d2 | 
[V:3] E4F4 | 
[V:4] z8 | 
[V:1] B8- :
[V:2] e4z4 | 
[V:3] E4G4 | 
[V:4] G,4E,2G,2- | 
[V:1] B8- :
[V:2] g4d2g2- | 
[V:3] E2G4E2 | 
[V:4] G,2E,2B,4 | 
[V:1] B8 | 
[V:2] g2e2d2e2- | 
[V:3] E2G4E2 | 
[V:4] z4G,4 | 
[V:1] c8- :
[V:2] e2c2f2e2 | 
[V:3] G2A2F2c2- | 
[V:4] E,2F,4C,2 | 
[V:1] c8- :
[V:2] f4g2e2 | 
[V:3] c2A2e4 | 
[V:4] F,4E,2A,2- | 
[V:1] c8 :
[V:2] a4f4 | 
[V:3] e2f3edc | 
[V:4] A,2F,2A,4 | 
[V:1] d8- :
[V:2] g4f2d2 | 
[V:3] B4A2B2 | 
[V:4] G,4D,4 | 
[V:1] d8- :
[V:2] g3fd2f2 | 
[V:3] G2B3cd2- | 
[V:4] z2G,4D,2 | 
[V:1] d8 | 
[V:2] g2d4g2- | 
[V:3] d2G3AB2 | 
[V:4] G,4G,4 | 
[V:1] e4d2B2 :
[V:2] g2g3fg2 | 
[V:3] c4d2e2- | 
[V:4] C,4G,4 | 
[V:1] c2A4B2 :
[V:2] c2fedcB2 | 
[V:3] edcBA2d2- | 
[V:4] A,3G,F,2G,2 | 
[V:1] A2^F2^G3F :
[V:2] d4e4- | 
[V:3] dcBAB4 | 
[V:4] F,4E,4 | 
[V:1] A8 |]  
[V:2] e8 |]  
[V:3] A8 |]  
[V:4] A,,8 |]  



